X: 28729
T: My Former Wife
R: jig
M: 6/8
K: Adorian
AG|:EAA ABc|BAB c2A|BGE EFE|GED DED|
EAA ABc|BAB GBd|ede gdB|1 BAG A2G:|2 BAG A2d||
|:efg a3|bgb a2g|ede g2a|gba ged|
efg abc'|bgb a2g|edd gdB|1 BAG A2d:|2 BAG A2A||
|:BAB c2A|BAB cBA|BGE EFE|GED DED|
BAB c2A|BAB GBd|ede gdB|BAA A2A|
BAB cdA|BAB cdA|BGE EFE|GED DED|
A3 ABc|BAB GBd|ede gdB|BAG A2G:|

